pix_core/f/unknown.svg

<svg fill="none" preserveAspectRatio="xMinYMid meet" viewBox="0 0 24 24" xmlns="http://www.w3.org/2000/svg"><g fill="#fff"><path d="m12.5 17.2488c0 .2761-.2239.5-.5.5s-.5-.2239-.5-.5c0-.2762.2239-.5.5-.5s.5.2238.5.5z"/><path d="m10.4907 12.0147c.144-.7316.7658-1.2632 1.4892-1.2632.8252 0 1.5202.6942 1.5202 1.5833 0 .4124-.2107.7154-.5609.9827-.2787.2127-.5857.3613-.885.5062-.1025.0496-.2042.0989-.3035.15-.1663.0858-.2708.2573-.2708.4444v.8334c0 .2761.2238.5.5.5.2761 0 .5-.2239.5-.5v-.5216c.3056-.1477.7182-.352 1.0659-.6174.4915-.3751.9543-.9401.9543-1.7777 0-1.4121-1.1139-2.58334-2.5202-2.58334-1.2313 0-2.24004.89984-2.47039 2.07014-.05333.2709.12308.5338.39402.5871.27097.0533.53377-.1231.58717-.394z"/><path clip-rule="evenodd" d="m19.5 19c0 1.3807-1.1193 2.5-2.5 2.5h-10c-1.38071 0-2.5-1.1193-2.5-2.5v-14c0-1.38071 1.11929-2.5 2.5-2.5h6.1716c.663 0 1.2989.26339 1.7677.73223l3.8285 3.82843c.4688.46884.7322 1.10473.7322 1.76777zm-14-14c0-.82843.67157-1.5 1.5-1.5h6c.2761 0 .5.22386.5.5v3c0 .82843.6716 1.5 1.5 1.5h3c.2761 0 .5.22386.5.5v10c0 .8284-.6716 1.5-1.5 1.5h-10c-.82843 0-1.5-.6716-1.5-1.5zm9-.79289 3.2929 3.29289h-2.7929c-.2761 0-.5-.22386-.5-.5z" fill-rule="evenodd"/></g></svg>

<svg viewBox="0 0 24 24" fill="none" xmlns="http://www.w3.org/2000/svg" preserveAspectRatio="xMinYMid meet">
<path d="M12.5 17.2488C12.5 17.5249 12.2761 17.7488 12 17.7488C11.7239 17.7488 11.5 17.5249 11.5 17.2488C11.5 16.9726 11.7239 16.7488 12 16.7488C12.2761 16.7488 12.5 16.9726 12.5 17.2488Z" fill="#fff"/>
<path  d="M10.4907 12.0147C10.6347 11.2831 11.2565 10.7515 11.9799 10.7515C12.8051 10.7515 13.5001 11.4457 13.5001 12.3348C13.5001 12.7472 13.2894 13.0502 12.9392 13.3175C12.6605 13.5302 12.3535 13.6788 12.0542 13.8237C11.9517 13.8733 11.85 13.9226 11.7507 13.9737C11.5844 14.0595 11.4799 14.231 11.4799 14.4181V15.2515C11.4799 15.5276 11.7037 15.7515 11.9799 15.7515C12.256 15.7515 12.4799 15.5276 12.4799 15.2515V14.7299C12.7855 14.5822 13.1981 14.3779 13.5458 14.1125C14.0373 13.7374 14.5001 13.1724 14.5001 12.3348C14.5001 10.9227 13.3862 9.75146 11.9799 9.75146C10.7486 9.75146 9.73986 10.6513 9.50951 11.8216C9.45618 12.0925 9.63259 12.3554 9.90353 12.4087C10.1745 12.462 10.4373 12.2856 10.4907 12.0147Z" fill="#fff"/>
<path fill-rule="evenodd" clip-rule="evenodd" d="M19.5 19C19.5 20.3807 18.3807 21.5 17 21.5H7C5.61929 21.5 4.5 20.3807 4.5 19V5C4.5 3.61929 5.61929 2.5 7 2.5H13.1716C13.8346 2.5 14.4705 2.76339 14.9393 3.23223L18.7678 7.06066C19.2366 7.5295 19.5 8.16539 19.5 8.82843V19ZM5.5 5C5.5 4.17157 6.17157 3.5 7 3.5H13C13.2761 3.5 13.5 3.72386 13.5 4V7C13.5 7.82843 14.1716 8.5 15 8.5H18C18.2761 8.5 18.5 8.72386 18.5 9V19C18.5 19.8284 17.8284 20.5 17 20.5H7C6.17157 20.5 5.5 19.8284 5.5 19V5ZM14.5 4.20711L17.7929 7.5H15C14.7239 7.5 14.5 7.27614 14.5 7V4.20711Z" fill="#fff"/>
</svg>
